dist/static/img/common/logo-small.svg

<svg width="74" height="24" viewBox="0 0 74 24" fill="none" xmlns="http://www.w3.org/2000/svg">
<g clip-path="url(#clip0_567_2071)">
<path opacity="0.75" d="M10.1649 0.000284195H0V23.7897H10.1649V0.000284195Z" fill="#1F5AFF"/>
<path opacity="0.75" d="M10.1649 0.000284195H0V17.116H10.1649C12.4315 17.0987 14.5993 16.1894 16.1959 14.5864C17.7925 12.9834 18.6885 10.8165 18.6885 8.55814C18.6885 6.29975 17.7925 4.13291 16.1959 2.52988C14.5993 0.926848 12.4315 0.0175919 10.1649 0.000284195V0.000284195Z" fill="#1F5AFF"/>
<path opacity="0.75" d="M42.8125 23.7897H26.6846V0.000320435L42.8125 23.7897Z" fill="#1F5AFF"/>
<path opacity="0.75" d="M34.2231 0.000302844H26.6846V17.116H34.2231C35.3566 17.1247 36.4806 16.9097 37.5303 16.4835C38.58 16.0573 39.5347 15.4283 40.3392 14.6328C41.1438 13.8373 41.7824 12.8909 42.2182 11.8484C42.654 10.8058 42.8783 9.68755 42.8783 8.55816C42.8783 7.42878 42.654 6.31056 42.2182 5.26797C41.7824 4.22539 41.1438 3.27905 40.3392 2.48352C39.5347 1.68799 38.58 1.059 37.5303 0.632805C36.4806 0.206612 35.3566 -0.00835247 34.2231 0.000302844Z" fill="#1F5AFF"/>
<path opacity="0.75" d="M61.2458 23.7897C67.8391 23.7897 73.184 18.4643 73.184 11.895C73.184 5.32576 67.8391 0.000320435 61.2458 0.000320435C54.6525 0.000320435 49.3076 5.32576 49.3076 11.895C49.3076 18.4643 54.6525 23.7897 61.2458 23.7897Z" fill="#1F5AFF"/>
<path opacity="0.75" d="M52.8057 20.3074C55.0447 22.538 58.0814 23.791 61.2477 23.7908C64.414 23.7906 67.4505 22.5372 69.6893 20.3063C71.9281 18.0755 73.1857 15.0498 73.1855 11.8951C73.1853 8.74028 71.9274 5.7148 69.6883 3.48418L52.8057 20.3074Z" fill="#1F5AFF"/>
</g>
<defs>
<clipPath id="clip0_567_2071">
<rect width="74" height="24" fill="white"/>
</clipPath>
</defs>
</svg>

<svg width="74" height="24" viewBox="0 0 74 24" fill="none" xmlns="http://www.w3.org/2000/svg"><g clip-path="url(#clip0_567_2071)" fill="#1F5AFF"><path opacity=".75" d="M10.165 0H0v23.79h10.165V0z"/><path opacity=".75" d="M10.165 0H0v17.116h10.165a8.605 8.605 0 006.03-2.53 8.542 8.542 0 002.494-6.028 8.542 8.542 0 00-2.493-6.028A8.605 8.605 0 0010.165 0zm32.648 23.79H26.684V0l16.128 23.79z"/><path opacity=".75" d="M34.223 0h-7.538v17.116h7.538a8.616 8.616 0 006.116-2.483 8.557 8.557 0 002.54-6.075 8.53 8.53 0 00-2.54-6.074A8.591 8.591 0 0034.223 0zm27.023 23.79c6.593 0 11.938-5.326 11.938-11.895C73.184 5.325 67.839 0 61.246 0c-6.593 0-11.938 5.326-11.938 11.895 0 6.57 5.345 11.895 11.938 11.895z"/><path opacity=".75" d="M52.806 20.307a11.96 11.96 0 008.442 3.484 11.96 11.96 0 008.441-3.485 11.873 11.873 0 003.497-8.41c0-3.156-1.259-6.181-3.498-8.412L52.806 20.307z"/></g><defs><clipPath id="clip0_567_2071"><path fill="#fff" d="M0 0h74v24H0z"/></clipPath></defs></svg>
